; ===== machine: Bambu A1 mini ===================
; ===== date: 2024511 ======================
; ===== Filamentor V0.1 ====================

G392 S0
M1007 S0

M204 S9000
{if toolchange_count > 0}
G17
G2 Z{max_layer_z + 0.4} I0.86 J0.86 P1 F10000 ; spiral lift a little from second lift
G1 Z{max_layer_z + 3.0} F1200

M400
M106 P1 S0
M106 P2 S0
{if old_filament_temp > 142 && next_extruder < 255}
M104 S[old_filament_temp]
{endif}

M17 S
M17 X1.1
G1 X180 F18000
G1 X201 F1000
G1 E-2 F500
G1 X180 F3000
G1 X-13.5 F18000
M17 R

; Filamentor
M73 P101 R[next_extruder]
M400 U1

{if next_extruder < 255}
M400

G92 E0
; M628 S0

{if flush_length_1 > 1}
; FLUSH_START 1
; always use highest temperature to flush
M400
M1002 set_filament_type:UNKNOWN
M109 S[new_filament_temp]
M106 P1 S60
{if flush_length_1 > 23.7}
G1 E23.7 F{old_filament_e_feedrate} ; do not need pulsatile flushing for start part
G1 E{(flush_length_1 - 23.7) * 0.02} F50
G1 E{(flush_length_1 - 23.7) * 0.23} F{old_filament_e_feedrate}
G1 E{(flush_length_1 - 23.7) * 0.02} F50
G1 E{(flush_length_1 - 23.7) * 0.23} F{new_filament_e_feedrate}
G1 E{(flush_length_1 - 23.7) * 0.02} F50
G1 E{(flush_length_1 - 23.7) * 0.23} F{new_filament_e_feedrate}
G1 E{(flush_length_1 - 23.7) * 0.02} F50
G1 E{(flush_length_1 - 23.7) * 0.23} F{new_filament_e_feedrate}
{else}
G1 E{flush_length_1} F{old_filament_e_feedrate}
{endif}
; FLUSH_END 1
G1 E-[old_retract_length_toolchange] F1800
G1 E[old_retract_length_toolchange] F300
M400
M1002 set_filament_type:{filament_type[next_extruder]}
{endif}

{if flush_length_1 > 45 && flush_length_2 > 1}
; WIPE 1
M400
M106 P1 S178
M400 S3
G1 X-3.5 F18000
G1 X-13.5 F3000
G1 X-3.5 F18000
G1 X-13.5 F3000
G1 X-3.5 F18000
G1 X-13.5 F3000
M400
M106 P1 S0
{endif}

{if flush_length_2 > 1}
M106 P1 S60
; FLUSH_START 2
G1 E{flush_length_2 * 0.18} F{new_filament_e_feedrate}
G1 E{flush_length_2 * 0.02} F50
G1 E{flush_length_2 * 0.18} F{new_filament_e_feedrate}
G1 E{flush_length_2 * 0.02} F50
G1 E{flush_length_2 * 0.18} F{new_filament_e_feedrate}
G1 E{flush_length_2 * 0.02} F50
G1 E{flush_length_2 * 0.18} F{new_filament_e_feedrate}
G1 E{flush_length_2 * 0.02} F50
G1 E{flush_length_2 * 0.18} F{new_filament_e_feedrate}
G1 E{flush_length_2 * 0.02} F50
; FLUSH_END 2
G1 E-[new_retract_length_toolchange] F1800
G1 E[new_retract_length_toolchange] F300
{endif}

{if flush_length_2 > 45 && flush_length_3 > 1}
; WIPE 2
M400
M106 P1 S178
M400 S3
G1 X-3.5 F18000
G1 X-13.5 F3000
G1 X-3.5 F18000
G1 X-13.5 F3000
G1 X-3.5 F18000
G1 X-13.5 F3000
M400
M106 P1 S0
{endif}

{if flush_length_3 > 1}
M106 P1 S60
; FLUSH_START 3
G1 E{flush_length_3 * 0.18} F{new_filament_e_feedrate}
G1 E{flush_length_3 * 0.02} F50
G1 E{flush_length_3 * 0.18} F{new_filament_e_feedrate}
G1 E{flush_length_3 * 0.02} F50
G1 E{flush_length_3 * 0.18} F{new_filament_e_feedrate}
G1 E{flush_length_3 * 0.02} F50
G1 E{flush_length_3 * 0.18} F{new_filament_e_feedrate}
G1 E{flush_length_3 * 0.02} F50
G1 E{flush_length_3 * 0.18} F{new_filament_e_feedrate}
G1 E{flush_length_3 * 0.02} F50
; FLUSH_END 3
G1 E-[new_retract_length_toolchange] F1800
G1 E[new_retract_length_toolchange] F300
{endif}

{if flush_length_3 > 45 && flush_length_4 > 1}
; WIPE 3
M400
M106 P1 S178
M400 S3
G1 X-3.5 F18000
G1 X-13.5 F3000
G1 X-3.5 F18000
G1 X-13.5 F3000
G1 X-3.5 F18000
G1 X-13.5 F3000
M400
M106 P1 S0
{endif}

{if flush_length_4 > 1}
M106 P1 S60
; FLUSH_START 4
G1 E{flush_length_4 * 0.18} F{new_filament_e_feedrate}
G1 E{flush_length_4 * 0.02} F50
G1 E{flush_length_4 * 0.18} F{new_filament_e_feedrate}
G1 E{flush_length_4 * 0.02} F50
G1 E{flush_length_4 * 0.18} F{new_filament_e_feedrate}
G1 E{flush_length_4 * 0.02} F50
G1 E{flush_length_4 * 0.18} F{new_filament_e_feedrate}
G1 E{flush_length_4 * 0.02} F50
G1 E{flush_length_4 * 0.18} F{new_filament_e_feedrate}
G1 E{flush_length_4 * 0.02} F50
; FLUSH_END 4
{endif}

{if toolchange_count == 1}
; For the first material change, FLUSH a bit more.
M400
M109 S[new_filament_temp]
M106 P1 S60

; FLUSH_START
G1 E50 F{old_filament_e_feedrate}
; FLUSH_END

G1 E-[new_retract_length_toolchange] F1800
G1 E[new_retract_length_toolchange] F300
{endif}

; M629

M400
M106 P1 S60
M109 S[new_filament_temp]
G1 E5 F{new_filament_e_feedrate} ; Compensate for filament spillage during waiting temperature
M400
G92 E0
G1 E-[new_retract_length_toolchange] F1800
M400
M106 P1 S178
M400 S3
G1 X-3.5 F18000
G1 X-13.5 F3000
G1 X-3.5 F18000
G1 X-13.5 F3000
G1 X-3.5 F18000
G1 X-13.5 F3000
G1 X-3.5 F18000
M400
G1 Z{max_layer_z + 3.0} F3000
M106 P1 S0
{if layer_z <= (initial_layer_print_height + 0.001)}
M204 S[initial_layer_acceleration]
{else}
M204 S[default_acceleration]
{endif}
{else}
G1 X[x_after_toolchange] Y[y_after_toolchange] Z[z_after_toolchange] F12000
{endif}

{endif}

M620 S[next_extruder]A
T[next_extruder]
M621 S[next_extruder]A

G392 S0
M1007 S1

{if toolchange_count == 1}
;===== extrude cali test ===============================
M104 S{nozzle_temperature_initial_layer[initial_extruder]}
G90
M83
G0 X68 Y-2.5 F30000
G0 Z0.2 F18000 ;Move to start position
G0 X88 E10  F{outer_wall_volumetric_speed/(24/20)    * 60}
G0 X93 E.3742  F{outer_wall_volumetric_speed/(0.3*0.5)/4     * 60}
G0 X98 E.3742  F{outer_wall_volumetric_speed/(0.3*0.5)     * 60}
G0 X103 E.3742  F{outer_wall_volumetric_speed/(0.3*0.5)/4     * 60}
G0 X108 E.3742  F{outer_wall_volumetric_speed/(0.3*0.5)     * 60}
G0 X113 E.3742  F{outer_wall_volumetric_speed/(0.3*0.5)/4     * 60}
G0 X115 Z0 F20000
G0 Z5
M400
{endif}
